icons/14x14_overview_outline.svg

<svg width="14" height="14" fill="none" xmlns="http://www.w3.org/2000/svg"><path fill-rule="evenodd" clip-rule="evenodd" d="M6 4H4v2h2V4Zm2 0v2h2V4H8Zm-2 6V8H4v2h2Zm2 0h2V8H8v2ZM2 2h10v10H2V2Z" fill="#000"/></svg>

<svg xmlns="http://www.w3.org/2000/svg" width="14" height="14" viewBox="0 0 14 14">
  <path fill-rule="evenodd" d="M6,4 L4,4 L4,6 L6,6 L6,4 Z M8,4 L8,6 L10,6 L10,4 L8,4 Z M6,10 L6,8 L4,8 L4,10 L6,10 Z M8,10 L10,10 L10,8 L8,8 L8,10 Z M2,2 L12,2 L12,12 L2,12 L2,2 Z"/>
</svg>
